packages/core/src/svgs/fsn.svg

<svg width="24" height="24" viewBox="0 0 24 24" fill="none" xmlns="http://www.w3.org/2000/svg">
<g clip-path="url(#clip0_31_10538)">
<path d="M0 0H24V24H0V0Z" fill="#F0F3FA"/>
<path d="M10.3802 9.04287C8.55449 11.8714 7.44021 15.8057 7.00307 17.1429C6.75878 14.6229 8.05735 11.19 9.0045 9.16287C8.56307 9.18001 6.43307 9.39858 5.14307 10.7443C5.14307 10.7443 5.65307 8.53287 9.66878 7.87287L9.68164 7.84715C12.8274 3.18429 15.1931 5.96572 15.1931 5.96572C13.7574 5.72572 12.5059 6.45429 11.4388 7.63715C11.9574 7.61144 15.3174 7.57287 16.2859 10.2643C16.2859 10.2643 14.3402 8.85001 10.3802 9.04287ZM12.6516 12.2829C12.4602 12.2814 12.2704 12.3186 12.0937 12.3923C11.9169 12.4659 11.7569 12.5745 11.6231 12.7114C11.3487 12.9918 11.1962 13.3692 11.1988 13.7614C11.1968 14.0024 11.2542 14.2401 11.3659 14.4536C11.4777 14.667 11.6404 14.8497 11.8396 14.9853C12.0387 15.1209 12.2683 15.2053 12.5078 15.231C12.7474 15.2568 12.9896 15.2231 13.2131 15.1329C13.3913 15.0586 13.5529 14.9494 13.6883 14.8118C13.8237 14.6741 13.9302 14.5108 14.0016 14.3314C14.0972 14.1083 14.136 13.865 14.1146 13.6232C14.0931 13.3814 14.0122 13.1486 13.8789 12.9458C13.7456 12.7429 13.5642 12.5762 13.3508 12.4605C13.1374 12.3448 12.8987 12.2838 12.6559 12.2829H12.6516Z" fill="#203259"/>
</g>
<defs>
<clipPath id="clip0_31_10538">
<rect width="24" height="24" fill="white"/>
</clipPath>
</defs>
</svg>

<svg xmlns="http://www.w3.org/2000/svg" width="24" height="24" fill="none" viewBox="0 0 24 24"><g clip-path="url(#a)"><path fill="#F0F3FA" d="M0 0h24v24H0z"/><path fill="#203259" d="M10.38 9.043c-1.826 2.828-2.94 6.763-3.377 8.1-.244-2.52 1.054-5.953 2.002-7.98-.442.017-2.572.236-3.862 1.581 0 0 .51-2.211 4.526-2.871l.013-.026c3.145-4.663 5.511-1.881 5.511-1.881-1.436-.24-2.687.488-3.754 1.671.518-.026 3.878-.064 4.847 2.627 0 0-1.946-1.414-5.906-1.221m2.272 3.24a1.42 1.42 0 0 0-1.029.428c-.274.28-.427.658-.424 1.05a1.467 1.467 0 0 0 2.014 1.372 1.45 1.45 0 0 0 .789-.802 1.47 1.47 0 0 0-1.346-2.048z"/></g><defs><clipPath id="a"><path fill="#fff" d="M0 0h24v24H0z"/></clipPath></defs></svg>
